Origami/16x16/apps/utilities-tweak-tool-symbolic.svg

<svg width="16" height="16" version="1.1" xmlns="http://www.w3.org/2000/svg">
 <path d="m0.857422-2e-7c-0.474778 0-0.857422 0.3826439-0.857422 0.8574219v14.285156c0 0.474778 0.382644 0.857422 0.857422 0.857422h14.285156c0.474778 0 0.857422-0.382644 0.857422-0.857422v-14.285156c0-0.474778-0.382644-0.8574219-0.857422-0.8574219h-14.285156zm2.142578 3c0.554 0 1 0.3723844 1 0.8339844v0.4375a2 2 0 0 1 1 1.7285156 2 2 0 0 1 -1 1.7304688v4.4375004c0 0.461-0.446 0.832031-1 0.832031s-1-0.371031-1-0.832031v-4.4394536a2 2 0 0 1 -1 -1.7285156 2 2 0 0 1 1 -1.7304688v-0.4355468c0-0.4616 0.446-0.8339844 1-0.8339844zm5 0c0.554 0 1 0.3723844 1 0.8339844v4.4375a2 2 0 0 1 1 1.7285158 2 2 0 0 1 -1 1.730469v0.4375c0 0.461-0.446 0.832031-1 0.832031s-1-0.371031-1-0.832031v-0.439453a2 2 0 0 1 -1 -1.728516 2 2 0 0 1 1 -1.730469v-4.4355468c0-0.4616 0.446-0.8339844 1-0.8339844zm5 0c0.554 0 1 0.3704314 1 0.8320312v2.4394532a2 2 0 0 1 1 1.7285156 2 2 0 0 1 -1 1.7304684v2.4355478c0 0.46166-0.446 0.833984-1 0.833984s-1-0.372984-1-0.833984v-2.4375008a2 2 0 0 1 -1 -1.7285154 2 2 0 0 1 1 -1.7304688v-2.4355468c0-0.46166 0.446-0.8339844 1-0.8339844zm-10 2a1 1 0 0 0 -1 1 1 1 0 0 0 1 1 1 1 0 0 0 1 -1 1 1 0 0 0 -1 -1zm10 2a1 1 0 0 0 -1 1 1 1 0 0 0 1 1.0000004 1 1 0 0 0 1 -1.0000004 1 1 0 0 0 -1 -1zm-5 2.0000004a1 1 0 0 0 -1 0.9999998 1 1 0 0 0 1 1 1 1 0 0 0 1 -1 1 1 0 0 0 -1 -0.9999998z" style="fill:#5c5c5c"/>
</svg>

<svg xmlns="http://www.w3.org/2000/svg" width="16" height="16" version="1.1">
 <path d="M 0.857422,-2e-7 C 0.382644,-2e-7 0,0.3826437 0,0.8574217 L 0,15.142578 C 0,15.617356 0.382644,16 0.857422,16 l 14.285156,0 C 15.617356,16 16,15.617356 16,15.142578 L 16,0.8574217 C 16,0.3826437 15.617356,-2e-7 15.142578,-2e-7 l -14.285156,0 z m 2.142578,3 c 0.554,0 1,0.3723844 1,0.8339844 l 0,0.4375 A 2,2 0 0 1 5,5.9999998 2,2 0 0 1 4,7.7304686 L 4,12.167969 C 4,12.628969 3.554,13 3,13 2.446,13 2,12.628969 2,12.167969 L 2,7.7285154 A 2,2 0 0 1 1,5.9999998 2,2 0 0 1 2,4.269531 L 2,3.8339842 c 0,-0.4616 0.446,-0.8339844 1,-0.8339844 z m 5,0 c 0.554,0 1,0.3723844 1,0.8339844 l 0,4.4375 A 2,2 0 0 1 10,10 2,2 0 0 1 9,11.730469 l 0,0.4375 C 9,12.628969 8.554,13 8,13 7.446,13 7,12.628969 7,12.167969 L 7,11.728516 A 2,2 0 0 1 6,10 2,2 0 0 1 7,8.269531 L 7,3.8339842 c 0,-0.4616 0.446,-0.8339844 1,-0.8339844 z m 5,0 c 0.554,0 1,0.3704314 1,0.8320312 l 0,2.4394532 a 2,2 0 0 1 1,1.7285156 2,2 0 0 1 -1,1.7304684 l 0,2.4355478 C 14,12.627676 13.554,13 13,13 12.446,13 12,12.627016 12,12.166016 L 12,9.7285152 A 2,2 0 0 1 11,7.9999998 2,2 0 0 1 12,6.269531 l 0,-2.4355468 c 0,-0.46166 0.446,-0.8339844 1,-0.8339844 z m -10,2 a 1,1 0 0 0 -1,1 1,1 0 0 0 1,1 1,1 0 0 0 1,-1 1,1 0 0 0 -1,-1 z m 10,2 a 1,1 0 0 0 -1,1 1,1 0 0 0 1,1.0000004 1,1 0 0 0 1,-1.0000004 1,1 0 0 0 -1,-1 z M 8,9.0000002 A 1,1 0 0 0 7,10 1,1 0 0 0 8,11 1,1 0 0 0 9,10 1,1 0 0 0 8,9.0000002 Z" style="fill:#5c5c5c"/>
</svg>
